image/iconmonstr-phone-12.svg

<svg width="24" height="24" xmlns="http://www.w3.org/2000/svg" fill-rule="evenodd" clip-rule="evenodd"><path d="M16 22.621l-3.521-6.795c-.007.004-1.974.97-2.064 1.011-2.24 1.086-6.799-7.82-4.609-8.994l2.082-1.026-3.492-6.817-2.106 1.039c-1.622.845-2.298 2.627-2.289 4.843.027 6.902 6.711 18.013 12.212 18.117.575.011 1.137-.098 1.677-.345.121-.055 2.102-1.029 2.11-1.033zm4-5.621h-1v-13h1v13zm-2-2h-1v-9h1v9zm4-1h-1v-7h1v7zm-6-1h-1v-5h1v5zm-2-1h-1v-3h1v3zm10 0h-1v-3h1v3zm-12-1h-1v-1h1v1z"/></svg>

<svg width="24" height="24" viewBox="0 0 24 24" fill="none" xmlns="http://www.w3.org/2000/svg">
<path fill-rule="evenodd" clip-rule="evenodd" d="M16 22.621L12.479 15.826C12.472 15.83 10.505 16.796 10.415 16.837C8.175 17.923 3.616 9.017 5.806 7.843L7.888 6.817L4.396 0L2.29 1.039C0.668004 1.884 -0.00799586 3.666 0.00100414 5.882C0.0280041 12.784 6.712 23.895 12.213 23.999C12.788 24.01 13.35 23.901 13.89 23.654C14.011 23.599 15.992 22.625 16 22.621V22.621ZM20 17H19V4H20V17ZM18 15H17V6H18V15ZM22 14H21V7H22V14ZM16 13H15V8H16V13ZM14 12H13V9H14V12ZM24 12H23V9H24V12ZM12 11H11V10H12V11Z" fill="white" fill-opacity="0.75"/>
</svg>
